!!!COA:	Josquin des Prez
!!!CDT:	~1450-1521/08/27
!!!OTL@@FRE: Plus n'estes ma maistresse
!!!AGN:	Chanson
!!!SCT:	NJE 28.27
!!!SCA:	New Josquin Edition 28.27
!!!voices:	4
**kern	**kern	**kern	**kern
*staff4	*staff3	*staff2	*staff1
*Ivox	*Ivox	*Ivox	*Ivox
*I"Bassus	*I"Tenor	*I"Altus	*I"Superius
*I'B	*I'T	*I'A	*I'S
*clefF4	*clefGv2	*clefGv2	*clefG2
*k[]	*k[]	*k[]	*k[]
*M2/1	*M2/1	*M2/1	*M2/1
*met(C|)	*met(C|)	*met(C|)	*met(C|)
=1-	=1-	=1-	=1-
0r	0r	1A	0r
.	.	[1d	.
=2	=2	=2	=2
0r	0r	2d\]	1r
.	.	2d\	.
.	.	2d\	1d
.	.	2d\	.
=3	=3	=3	=3
0r	0r	0e	1.g
.	.	.	2g/
=4	=4	=4	=4
0r	1r	1c	2g/
.	.	.	2g/
.	1D	1f	1a
=5	=5	=5	=5
0r	1.G	2e\	2.b\
.	.	1d	.
.	.	.	4a/
.	.	.	2g/
.	2G/	2c\	[2cc\
=6	=6	=6	=6
1GG	2G/	1d	2cc\]
.	2G/	.	2b\
[1C	2A/	2r	[1cc
.	[2G/	[2e\	.
=7	=7	=7	=7
2C/]	2G/]	2e\]	0cc]
2C/	2A/	2e\	.
2C/	2G/	1e	.
2C/	[2c\	.	.
=8	=8	=8	=8
1D	4c\]	1f	1r
.	4B\	.	.
.	4B\	.	.
.	4A/	.	.
2C/	[1c	2e\	2r
[2F\	.	2A/	[2a/
=9	=9	=9	=9
2F\]	1c]	2r	2a/]
2E\	.	2e\	2g/
1F	1A	2.c\	2a/
.	.	.	[2cc\
.	.	4d\	.
=10	=10	=10	=10
0E	0G	1e	2cc\]
.	.	.	2b\
.	.	2e\	2cc\
.	.	2e\	[2b\
=11	=11	=11	=11
1r	0r	4d\	2b\]
.	.	4c\	.
.	.	4B\	1a
.	.	4A/	.
2r	.	1B	.
2E\	.	.	2g#i/
=12	=12	=12	=12
2.F\	0r	[0A	0a
4E\	.	.	.
2D\	.	.	.
2C/	.	.	.
=13	=13	=13	=13
1D	2r	0A]	2r
.	2d\	.	1a
1D	2d\	.	.
.	2d\	.	2a/
=14	=14	=14	=14
0r	2c\	1r	2a/
.	2B\	.	2g/
.	1A	1A	2f/
.	.	.	[2e/
=15	=15	=15	=15
1AA	1c	2E/	2e/]
.	.	2E/	2a/
2.D\	2d\	2F/	2a/
.	2c\	2F/	2a/
4AA/	.	.	.
=16	=16	=16	=16
2C/	2e\	2E/	2g/
2D\	1d	1A	2f/
1AA	.	.	1e
.	2c#i\	2E/	.
=17	=17	=17	=17
1D	1d	1F	0r
2C/	1r	2E/	.
2AA/	.	[2A/	.
=18	=18	=18	=18
2BB/	1d	2A/]	1r
2BB/	.	2G#i/	.
1AA	2c\	2A/	1e
.	2A/	[2c\	.
=19	=19	=19	=19
1A	2c\	4c\]	1e
.	.	4d\	.
.	2c\	1e	.
2G\	2B\	.	1r
2F\	[2A/	[2d\	.
=20	=20	=20	=20
1E	2A/]	4d\]	1g
.	.	4c#i\	.
.	2G/	2c#i\	.
[1D	2A/	2d\	[1f
.	2d\	2D/	.
=21	=21	=21	=21
1D]	2d\	1.A	2f/]
.	2d\	.	4e/
.	.	.	4d/
[1AA	2c\	.	2e/
.	2A/	2A/	2f/
=22	=22	=22	=22
1AA]	1c	2A/	2e/
.	.	2A/	2.cc\
1r	1d	2G/	.
.	.	.	4b\
.	.	2F/	[2a/
=23	=23	=23	=23
1E	1B	1G	2a/]
.	.	.	2g/
1F	[1A	2r	[1a
.	.	2d\	.
=24	=24	=24	=24
2D\	1A]	2d\	1a]
1.F	.	2d\	.
.	1r	2.c\	2r
.	.	.	2a/
.	.	4B\	.
=25	=25	=25	=25
1F	1r	1A	2a/
.	.	.	2a/
[1C	2r	[1c	2.g/
.	2G/	.	.
.	.	.	4f/
=26	=26	=26	=26
1C]	2G/	1c]	2e/
.	2G/	.	2e/
[1D	2F/	[1A	2.f/
.	2D/	.	.
.	.	.	4e/
=27	=27	=27	=27
1D]	1F	1A]	2d/
.	.	.	2f/
1GG	1G	1B	2e/
.	.	.	[2d/
=28	=28	=28	=28
0AA	1E	0A	2d/]
.	.	.	4c#i/
.	.	.	4B/
.	1E	.	1c#i
=29	=29	=29	=29
1r	1D	2.F/	0d
.	.	4E/	.
1D	1F	1D	.
=30	=30	=30	=30
1.G	1E	0C	0r
.	2E/	.	.
2G\	2E/	.	.
=31	=31	=31	=31
2G\	2E/	1G	0r
2E\	2E/	.	.
[1F	[1A	[1c	.
=32	=32	=32	=32
1F]	1A]	1c]	0r
2E\	2r	2c\	.
2F\	2D/	2A/	.
=33	=33	=33	=33
0E	2.G/	0B	0r
.	4G/	.	.
.	2G/	.	.
.	2E/	.	.
=34	=34	=34	=34
1r	0F	1A	1r
1D	.	1B	1d
=35	=35	=35	=35
1.C	1E	0c	1.g
.	2r	.	.
2C/	2G/	.	2g/
=36	=36	=36	=36
2C/	2.c\	1G	2g/
2C/	.	.	2e/
.	4c\	.	.
2.F\	2c\	1A	[1f
.	2A/	.	.
4D\	.	.	.
=37	=37	=37	=37
1D	4B\	2F/	1f]
.	4A/	.	.
.	1d	2D/	.
1r	.	1A	1e
.	2c\	.	.
=38	=38	=38	=38
2r	2B\	2B\	0r
2.F\	2.A/	1d	.
4E\	4G/	.	.
4D\	[2G/	[2c\	.
4C/	.	.	.
=39	=39	=39	=39
1D	2G/]	2c\]	1r
.	2F/	2B\	.
[1C	[1G	[1c	1e
=40	=40	=40	=40
2C/]	1G]	1c]	1.g
2C/	.	.	.
[1C	1G	2r	.
.	.	2G/	2g/
=41	=41	=41	=41
1C]	1G	2.c\	2g/
.	.	.	2e/
.	.	4c\	.
2.F\	[1A	2c\	[1f
.	.	2A/	.
4D\	.	.	.
=42	=42	=42	=42
1D	2A/]	4d\	1f]
.	.	4c\	.
.	2A/	1d	.
1r	2A/	.	1e
.	2A/	2c#i\	.
=43	=43	=43	=43
0r	1D	2d\	2r
.	.	2.d\	2a/
.	1r	.	2a/
.	.	4d\	.
.	.	2d\	2b\
=44	=44	=44	=44
1r	1r	2c\	2a/
.	.	2B\	1g
2r	2r	1A	.
2D\	2d\	.	2f#i/
=45	=45	=45	=45
2GG/	2d\	0G	1g
2GG/	2d\	.	.
2.C/	2.e\	.	2r
.	.	.	2g/
4BB/	4d\	.	.
=46	=46	=46	=46
2C/	2c\	2r	2g/
2GG/	2B\	2d\	2g/
1D	1A	2d\	1f
.	.	2d\	.
=47	=47	=47	=47
1E	1G	2B\	2g/
.	.	2.c\	1e
2C/	2A/	.	.
.	.	4B\	.
2D\	2F/	2A/	2f/
=48	=48	=48	=48
2GG/	2G/	2G/	4e/
.	.	.	4d/
1D	2D/	1A	1f
.	2F/	.	.
2GG/	2G/	2B\	4e/
.	.	.	4d/
=49	=49	=49	=49
1AA	1E	1A	1c#i
[1D	[1D	2r	[1d
.	.	2A/	.
=50	=50	=50	=50
2D\]	0D_	1.d	1d]
2BB/	.	.	.
[1BB	.	.	1r
.	.	2d\	.
=51	=51	=51	=51
1BB]	1D]	1d	1d
[1C	1r	[1e	[1g
=52	=52	=52	=52
2C/]	0r	1e]	2g/]
2D\	.	.	2g/
1E	.	1c	2g/
.	.	.	2g/
=53	=53	=53	=53
1D	1D	1f	1a
1r	[1G	2e\	2.b\
.	.	[2d\	.
.	.	.	4a/
=54	=54	=54	=54
1r	2G/]	2d\]	2g/
.	2G/	2c\	1cc
1GG	2G/	1d	.
.	2G/	.	2b\
=55	=55	=55	=55
1.C	2A/	2r	[0cc
.	1G	1e	.
2C/	2A/	2e\	.
=56	=56	=56	=56
2C/	2G/	1e	1cc]
2C/	1c	.	.
1D	.	1f	1r
.	2B\	.	.
=57	=57	=57	=57
2C/	0c	2e\	2r
1F	.	2.A/	1a
.	.	4B\	.
2E\	.	[2c\	2g/
=58	=58	=58	=58
1F	2r	2c\]	2a/
.	2c\	2A/	1cc
[1E	1e	[1G	.
.	.	.	2b\
=59	=59	=59	=59
1E]	2e\	1G]	2cc\
.	2e\	.	2.b\
1r	4d\	1r	.
.	4c\	.	4a/
.	4B\	.	[2a/
.	4A/	.	.
=60	=60	=60	=60
2r	1B	2r	2a/]
2E\	.	2G/	2g#i/
2.F\	2.A/	1c	[1a
4E\	4G/	.	.
=61	=61	=61	=61
2D\	2F/	2d\	1a]
2C/	2E/	2e\	.
1D	2.F/	2A/	2r
.	.	[2d\	[2a/
.	4G/	.	.
=62	=62	=62	=62
1AA	1E	2d\]	2a/]
.	.	2c#i\	2a/
[1D	2r	[1d	2f/
.	2D/	.	2d/
=63	=63	=63	=63
1D]	0A	1d]	2.f/
.	.	.	4g/
[1AA	.	2c\	[1el
.	.	2A/	.
=64	=64	=64	=64
1AA]	1A	1c	0e_
1r	2G/	2B\	.
.	[2c\	[2A/	.
=65	=65	=65	=65
1r	2c\]	2A/]	0e_
.	2B\	2G/	.
[1AAl	1c	[1Al	.
=66	=66	=66	=66
0AA_	0A	0A_	0e_
=67	=67	=67	=67
0AA]	0El	0A]	0e]
==	==	==	==
*-	*-	*-	*-
!!!RDF**kern: l=long note in original notation
!!!RDF**kern: i=editorial accidental
!!!ENC:	Jesse Rodin; Victoria Chang 2011/10/21
!!!END:	2011/10/21/
!!!EED:	Jesse Rodin
!!!EEV:	2011/12/16/
!!attribution-level@Jos: 3 (tricky)
!!!ONB:	Translated from MusicXML and edited on 2011/12/16/ by Craig Sapp
!!muse2ps: C^@{COA}?\n@{SCT}^i2I150v90,90,90,150Q16
